layouts/partials/svgs/icon-github-footer.svg

<svg preserveAspectRatio="xMidYMid" viewBox="0 0 512 512" xmlns="http://www.w3.org/2000/svg" fill="{{ .fill }}" width="{{ .size }}" height="{{ .size }}"><path class="cls-1" d="M256 512C114.615 512 0 397.385 0 256S114.615 0 256 0s256 114.615 256 256-114.615 256-256 256zm109.251-326.632c.574-3.18 1.132-7.674 1.671-13.464.535-5.798.328-12.5-.609-20.093-.93-7.594-2.687-15.341-5.265-23.248l-2-.455c-1.328-.312-3.511-.21-6.534.303-3.015.51-6.549 1.435-10.588 2.77-4.051 1.336-9.264 3.98-15.67 7.934-6.401 3.94-13.15 8.948-20.262 15.001-12.096-4.209-28.749-8.608-49.993-8.608-21.239 0-37.947 4.399-50.129 8.608-7.105-6.053-13.877-11.035-20.333-14.929-6.433-3.896-11.588-6.567-15.463-8.006-3.862-1.434-7.436-2.358-10.733-2.77-3.28-.411-5.389-.539-6.327-.384-.937.152-1.624.327-2.062.536-2.578 7.907-4.362 15.654-5.335 23.248-.976 7.593-1.203 14.263-.664 20.013.535 5.745 1.109 10.26 1.734 13.544.617 3.288 1.328 6.102 2.129 8.466-13.861 18.368-20.798 40.383-20.798 66.034 0 14.263 1.062 27.2 3.199 38.792 2.128 11.602 5.128 21.653 8.999 30.172 3.862 8.519 8.752 15.983 14.661 22.398 5.921 6.411 12.334 11.7 19.271 15.863 6.924 4.155 14.861 7.51 23.797 10.083a165.247 165.247 0 0 0 27.258 5.387c9.249 1.023 19.423 1.537 30.531 1.537 11.104 0 21.309-.514 30.589-1.537a165.172 165.172 0 0 0 27.332-5.387c8.928-2.573 16.883-5.928 23.859-10.083 6.984-4.163 13.448-9.452 19.408-15.854 5.948-6.415 10.861-13.888 14.724-22.407 3.862-8.519 6.886-18.57 9.069-30.163 2.168-11.601 3.265-24.538 3.265-38.801 0-25.553-6.936-47.562-20.798-66.034.801-2.462 1.488-5.29 2.067-8.466zM340.325 337.57c-2.711 5.15-6.504 9.497-11.397 13.048-4.89 3.547-9.623 6.281-14.201 8.233-4.574 1.948-10.486 3.459-17.732 4.544-7.241 1.081-13.732 1.751-19.47 1.978-5.725.228-12.951.34-21.661.34-8.702 0-15.908-.112-21.594-.34-5.691-.227-12.15-.897-19.399-1.978-7.238-1.085-13.151-2.596-17.724-4.544-4.586-1.952-9.304-4.686-14.197-8.233-4.89-3.551-8.69-7.898-11.409-13.048-2.695-5.142-4.952-11.53-6.725-19.129-1.778-7.612-2.664-16.278-2.664-26.004 0-16.585 5.335-31.636 15.998-45.127 3.198-4.119 6.909-7.237 11.127-9.354 4.221-2.122 9.021-3.319 14.404-3.601 5.374-.285 10.502-.232 15.388.161 4.89.402 10.936.952 18.134 1.64 7.206.683 13.424 1.023 18.661 1.023 5.25 0 11.472-.34 18.662-1.023 7.206-.688 13.255-1.238 18.142-1.64 4.885-.393 10.013-.446 15.388-.161 5.386.282 10.202 1.479 14.463 3.601 4.273 2.117 7.998 5.235 11.205 9.354 10.671 13.491 15.998 28.542 15.998 45.127 0 9.726-.895 18.392-2.672 26.004-1.773 7.599-4.015 13.987-6.725 19.129zm-132.317-81.553c-8.83 0-15.997 12.288-15.997 27.447 0 15.161 7.167 27.446 15.997 27.446 8.831 0 15.998-12.285 15.998-27.446 0-15.159-7.167-27.447-15.998-27.447zm62.518 74.865c-1.952-2.233-5.105-2.233-7.053 0-3.058 3.485-5.503 5.187-7.472 5.187-1.968 0-4.414-1.702-7.472-5.187-1.952-2.242-5.104-2.242-7.053 0-1.96 2.234-1.96 5.857 0 8.077 4.948 5.682 9.733 8.51 14.525 8.51s9.573-2.828 14.525-8.501c1.961-2.229 1.961-5.852 0-8.086zm33.468-74.865c-8.831 0-15.998 12.288-15.998 27.447 0 15.161 7.167 27.446 15.998 27.446s15.998-12.285 15.998-27.446c0-15.159-7.167-27.447-15.998-27.447z"/></svg>

<svg preserveAspectRatio="xMidYMid" viewBox="0 0 512 512" xmlns="http://www.w3.org/2000/svg" xmlns:xlink="http://www.w3.org/1999/xlink" fill="{{ .fill }}" width="{{ .size }}" height="{{ .size }}">
    <path class="cls-1" d="M256.000,512.000 C114.615,512.000 0.000,397.385 0.000,256.000 C0.000,114.615 114.615,0.000 256.000,0.000 C397.385,0.000 512.000,114.615 512.000,256.000 C512.000,397.385 397.385,512.000 256.000,512.000 ZM365.251,185.368 C365.825,182.188 366.383,177.694 366.922,171.904 C367.457,166.106 367.250,159.404 366.313,151.811 C365.383,144.217 363.626,136.470 361.048,128.563 L359.048,128.108 C357.720,127.796 355.537,127.898 352.514,128.411 C349.499,128.921 345.965,129.846 341.926,131.181 C337.875,132.517 332.662,135.161 326.256,139.115 C319.855,143.055 313.106,148.063 305.994,154.116 C293.898,149.907 277.245,145.508 256.001,145.508 C234.762,145.508 218.054,149.907 205.872,154.116 C198.767,148.063 191.995,143.081 185.539,139.187 C179.106,135.291 173.951,132.620 170.076,131.181 C166.214,129.747 162.640,128.823 159.343,128.411 C156.063,128.000 153.954,127.872 153.016,128.027 C152.079,128.179 151.392,128.354 150.954,128.563 C148.376,136.470 146.592,144.217 145.619,151.811 C144.643,159.404 144.416,166.074 144.955,171.824 C145.490,177.569 146.064,182.084 146.689,185.368 C147.306,188.656 148.017,191.470 148.818,193.834 C134.957,212.202 128.020,234.217 128.020,259.868 C128.020,274.131 129.082,287.068 131.219,298.660 C133.347,310.262 136.347,320.313 140.218,328.832 C144.080,337.351 148.970,344.815 154.879,351.230 C160.800,357.641 167.213,362.930 174.150,367.093 C181.074,371.248 189.011,374.603 197.947,377.176 C206.872,379.735 215.960,381.531 225.205,382.563 C234.454,383.586 244.628,384.100 255.736,384.100 C266.840,384.100 277.045,383.586 286.325,382.563 C295.620,381.531 304.728,379.735 313.657,377.176 C322.585,374.603 330.540,371.248 337.516,367.093 C344.500,362.930 350.964,357.641 356.924,351.239 C362.872,344.824 367.785,337.351 371.648,328.832 C375.510,320.313 378.534,310.262 380.717,298.669 C382.885,287.068 383.982,274.131 383.982,259.868 C383.982,234.315 377.046,212.306 363.184,193.834 C363.985,191.372 364.672,188.544 365.251,185.368 ZM340.325,337.570 C337.614,342.720 333.821,347.067 328.928,350.618 C324.038,354.165 319.305,356.899 314.727,358.851 C310.153,360.799 304.241,362.310 296.995,363.395 C289.754,364.476 283.263,365.146 277.525,365.373 C271.800,365.601 264.574,365.713 255.864,365.713 C247.162,365.713 239.956,365.601 234.270,365.373 C228.579,365.146 222.120,364.476 214.871,363.395 C207.633,362.310 201.720,360.799 197.147,358.851 C192.561,356.899 187.843,354.165 182.950,350.618 C178.060,347.067 174.260,342.720 171.541,337.570 C168.846,332.428 166.589,326.040 164.816,318.441 C163.038,310.829 162.152,302.163 162.152,292.437 C162.152,275.852 167.487,260.801 178.150,247.310 C181.348,243.191 185.059,240.073 189.277,237.956 C193.498,235.834 198.298,234.637 203.681,234.355 C209.055,234.070 214.183,234.123 219.069,234.516 C223.959,234.918 230.005,235.468 237.203,236.156 C244.409,236.839 250.627,237.179 255.864,237.179 C261.114,237.179 267.336,236.839 274.526,236.156 C281.732,235.468 287.781,234.918 292.668,234.516 C297.553,234.123 302.681,234.070 308.056,234.355 C313.442,234.637 318.258,235.834 322.519,237.956 C326.792,240.073 330.517,243.191 333.724,247.310 C344.395,260.801 349.722,275.852 349.722,292.437 C349.722,302.163 348.827,310.829 347.050,318.441 C345.277,326.040 343.035,332.428 340.325,337.570 ZM208.008,256.017 C199.178,256.017 192.011,268.305 192.011,283.464 C192.011,298.625 199.178,310.910 208.008,310.910 C216.839,310.910 224.006,298.625 224.006,283.464 C224.006,268.305 216.839,256.017 208.008,256.017 ZM270.526,330.882 C268.574,328.649 265.421,328.649 263.473,330.882 C260.415,334.367 257.970,336.069 256.001,336.069 C254.033,336.069 251.587,334.367 248.529,330.882 C246.577,328.640 243.425,328.640 241.476,330.882 C239.516,333.116 239.516,336.739 241.476,338.959 C246.424,344.641 251.209,347.469 256.001,347.469 C260.793,347.469 265.574,344.641 270.526,338.968 C272.487,336.739 272.487,333.116 270.526,330.882 ZM303.994,256.017 C295.163,256.017 287.996,268.305 287.996,283.464 C287.996,298.625 295.163,310.910 303.994,310.910 C312.825,310.910 319.992,298.625 319.992,283.464 C319.992,268.305 312.825,256.017 303.994,256.017 Z" />
</svg>
